img/logo.svg

<svg width="53" height="23" viewBox="0 0 53 23" fill="none" xmlns="http://www.w3.org/2000/svg">
<path d="M4.5698 11.9H9.7598V13.11H5.9398V14.74H7.8998C8.24647 14.74 8.5598 14.7867 8.8398 14.88C9.12647 14.9733 9.36981 15.11 9.5698 15.29C9.77647 15.47 9.93314 15.69 10.0398 15.95C10.1531 16.21 10.2098 16.51 10.2098 16.85C10.2098 17.5433 10.0031 18.0767 9.58981 18.45C9.18314 18.8167 8.63647 19 7.9498 19H4.5698V11.9ZM7.8198 17.83C8.14647 17.83 8.39314 17.7433 8.5598 17.57C8.72647 17.39 8.80981 17.1467 8.80981 16.84C8.80981 16.5467 8.72647 16.31 8.5598 16.13C8.39314 15.95 8.14647 15.86 7.8198 15.86H5.9398V17.83H7.8198ZM14.3725 14.19C14.2992 15.1033 14.1992 15.87 14.0725 16.49C13.9459 17.11 13.7725 17.6133 13.5525 18C13.3325 18.38 13.0592 18.6533 12.7325 18.82C12.4059 18.9867 12.0059 19.07 11.5325 19.07L11.4525 17.83C11.6792 17.81 11.8759 17.7533 12.0425 17.66C12.2159 17.5667 12.3625 17.3833 12.4825 17.11C12.6092 16.8367 12.7159 16.4467 12.8025 15.94C12.8892 15.4267 12.9692 14.7467 13.0425 13.9L13.2125 11.9H17.5125V19H16.1425V13.11H14.4625L14.3725 14.19ZM23.0759 19.05C22.5559 19.05 22.0826 18.95 21.6559 18.75C21.2359 18.5433 20.8726 18.2733 20.5659 17.94C20.2659 17.6 20.0326 17.2133 19.8659 16.78C19.6992 16.3467 19.6159 15.9033 19.6159 15.45C19.6159 14.9767 19.7026 14.5233 19.8759 14.09C20.0559 13.6567 20.2992 13.2733 20.6059 12.94C20.9192 12.6067 21.2892 12.3433 21.7159 12.15C22.1426 11.95 22.6059 11.85 23.1059 11.85C23.6192 11.85 24.0859 11.9567 24.5059 12.17C24.9326 12.3767 25.2959 12.65 25.5959 12.99C25.8959 13.33 26.1292 13.7167 26.2959 14.15C26.4626 14.5833 26.5459 15.0233 26.5459 15.47C26.5459 15.9433 26.4592 16.3967 26.2859 16.83C26.1126 17.2567 25.8726 17.6367 25.5659 17.97C25.2592 18.2967 24.8926 18.56 24.4659 18.76C24.0392 18.9533 23.5759 19.05 23.0759 19.05ZM21.0159 15.45C21.0159 15.7567 21.0626 16.0533 21.1559 16.34C21.2492 16.6267 21.3826 16.88 21.5559 17.1C21.7359 17.32 21.9526 17.4967 22.2059 17.63C22.4659 17.7633 22.7592 17.83 23.0859 17.83C23.4192 17.83 23.7126 17.7633 23.9659 17.63C24.2259 17.49 24.4426 17.3067 24.6159 17.08C24.7959 16.8533 24.9292 16.6 25.0159 16.32C25.1092 16.0333 25.1559 15.7433 25.1559 15.45C25.1559 15.1433 25.1059 14.8467 25.0059 14.56C24.9126 14.2733 24.7759 14.02 24.5959 13.8C24.4226 13.58 24.2059 13.4067 23.9459 13.28C23.6926 13.1467 23.4059 13.08 23.0859 13.08C22.7526 13.08 22.4559 13.15 22.1959 13.29C21.9359 13.4233 21.7192 13.6033 21.5459 13.83C21.3726 14.05 21.2392 14.3033 21.1459 14.59C21.0592 14.87 21.0159 15.1567 21.0159 15.45ZM32.9545 13.11H29.9945V19H28.6245V11.9H32.9545V13.11ZM36.2289 16.88L39.8489 11.9H40.8989V19H39.5289V14.13L35.9589 19H34.8589V11.9H36.2289V16.88ZM44.807 14.82H45.367L47.527 11.9H49.087L46.537 15.33L49.317 19H47.777L45.497 16.06H44.807V19H43.437V11.9H44.807V14.82Z" fill="black"/>
<path d="M5 8L26.2844 1.01005C26.3043 1.00351 26.3257 1.00339 26.3457 1.00969L48.5 8" stroke="black" stroke-width="1.5" stroke-linecap="round"/>
</svg>

<svg width="53" height="23" fill="none" xmlns="http://www.w3.org/2000/svg"><path d="M4.57 11.9h5.19v1.21H5.94v1.63H7.9c.35 0 .66.05.94.14a2 2 0 01.73.41c.2.18.36.4.47.66.11.26.17.56.17.9 0 .7-.2 1.23-.62 1.6-.4.37-.95.55-1.64.55H4.57v-7.1zm3.25 5.93c.33 0 .57-.09.74-.26.17-.18.25-.42.25-.73a1 1 0 00-.25-.71c-.17-.18-.41-.27-.74-.27H5.94v1.97h1.88zm6.55-3.64c-.07.91-.17 1.68-.3 2.3-.12.62-.3 1.12-.52 1.51-.22.38-.5.65-.82.82-.32.17-.72.25-1.2.25l-.08-1.24c.23-.02.43-.08.6-.17.17-.1.31-.28.43-.55.13-.27.24-.66.32-1.17.09-.51.17-1.2.24-2.04l.17-2h4.3V19h-1.37v-5.89h-1.68l-.09 1.08zm8.7 4.86a3.3 3.3 0 01-2.5-1.11 3.8 3.8 0 01-.7-3.85c.19-.43.43-.82.74-1.15a3.47 3.47 0 012.5-1.09 3.43 3.43 0 012.49 1.14 3.8 3.8 0 01.69 3.84 3.57 3.57 0 01-1.82 1.93c-.43.2-.9.29-1.4.29zm-2.05-3.6c0 .3.04.6.14.89a2.09 2.09 0 001.05 1.29c.26.13.55.2.88.2a1.86 1.86 0 001.53-.75 2.8 2.8 0 00.39-2.52c-.1-.29-.23-.54-.41-.76-.18-.22-.4-.4-.65-.52-.26-.13-.54-.2-.86-.2a1.9 1.9 0 00-1.54.75c-.18.22-.31.47-.4.76a2.9 2.9 0 00-.13.86zm11.93-2.34H30V19h-1.37v-7.1h4.33v1.21zm3.28 3.77l3.62-4.98h1.05V19h-1.37v-4.87L35.96 19h-1.1v-7.1h1.37v4.98zm8.58-2.06h.56l2.16-2.92h1.56l-2.55 3.43L49.32 19h-1.54l-2.28-2.94h-.7V19h-1.36v-7.1h1.37v2.92z" fill="#000"/><path d="M5 8l21.28-6.99a.1.1 0 01.07 0L48.5 8" stroke="#000" stroke-width="1.5" stroke-linecap="round"/></svg>
